X: 4289
T: HARBOUR LIGHTS
%R: hornpipe, reel
B: James Kerr "Merry Melodies" v.4 p.31 #289
Z: 2016 John Chambers <jc:trillian.mit.edu>
M: C|
L: 1/8
K: G
D2 |\
G>FG>B d>BG2 | c>Bc>e g>ec2 |\
[1,3 G>FG>B d>BG2 | A>GF>E D2 :|\
[2,4 d>gf>e (3ded (3cBA | G2B2G2 |]
|: D2 |\
A>^GA>B c>AF2 | G>FG>A B>GD2 |\
[1,3 c>Bc>A B>AB>G | (3ABA (3GFE D2 :|\
[2,4 d>gf>e (3ded (3cBA | G2B2G2 :|

%%sep 1 1 500
%%sep 1 1 500

